X: 1
T: Sl\"angpolska fr\aan Kumla
O:efter Olov Larsson, Hidinge
O: David Bastviken Feb 1997
Z: John Chambers <jc@trillian.mit.edu>
M:3/4
L:1/16
K:D
A2 \
|: "D"dedc d2A2 F3A | dcde d2A2 f4 | "Em"e3f g2e2 "D"f2d2 |1,3 "(E7)"d2cd "A7"e2c2 A3c :|2,4 "A7"cdec c2d2 "D"d4 :|
|: "D"fafd fafd fafd | "A7"eaec eaec eaec | "G"{c}d2c B2c2 "E7"d2e2 | d2cB "A"A4 A2A2 |
| "G"BdBG BdBG BdBG | "D"AdAF AdAF AdAF | "Em"{F}G3F E2g2 "D"f2d2 | "A7"fedc c2d2 "D"d4 :|

%%sep 1 1 500

